Numix/64/mimetypes/application-executable.svg

<?xml version="1.0" encoding="UTF-8" standalone="no"?>
<svg
   xmlns:dc="http://purl.org/dc/elements/1.1/"
   xmlns:cc="http://creativecommons.org/ns#"
   xmlns:rdf="http://www.w3.org/1999/02/22-rdf-syntax-ns#"
   xmlns:svg="http://www.w3.org/2000/svg"
   xmlns="http://www.w3.org/2000/svg"
   xmlns:sodipodi="http://sodipodi.sourceforge.net/DTD/sodipodi-0.dtd"
   xmlns:inkscape="http://www.inkscape.org/namespaces/inkscape"
   width="64px"
   height="64px"
   viewBox="0 0 64 64"
   version="1.1"
   id="svg2"
   inkscape:version="0.91 r13725"
   sodipodi:docname="application-executable.svg">
  <metadata
     id="metadata15">
    <rdf:RDF>
      <cc:Work
         rdf:about="">
        <dc:format>image/svg+xml</dc:format>
        <dc:type
           rdf:resource="http://purl.org/dc/dcmitype/StillImage" />
      </cc:Work>
    </rdf:RDF>
  </metadata>
  <defs
     id="defs13" />
  <sodipodi:namedview
     pagecolor="#ffffff"
     bordercolor="#666666"
     borderopacity="1"
     objecttolerance="10"
     gridtolerance="10"
     guidetolerance="10"
     inkscape:pageopacity="0"
     inkscape:pageshadow="2"
     inkscape:window-width="1920"
     inkscape:window-height="1013"
     id="namedview11"
     showgrid="false"
     inkscape:zoom="3.6875"
     inkscape:cx="-2.9830508"
     inkscape:cy="32"
     inkscape:window-x="0"
     inkscape:window-y="27"
     inkscape:window-maximized="1"
     inkscape:current-layer="svg2" />
  <path
     inkscape:connector-curvature="0"
     id="path5"
     d="M 10.742188,8 C 9.375,8 8,9.375 8,10.742188 l 0,42.59375 C 8,54.625 9.375,56 10.664062,56 l 42.671876,0 C 54.625,56 56,54.625 56,53.335938 L 56,10.664062 C 56,9.375 54.625,8 53.335938,8 Z m 0,0"
     style="fill:#eeeeee;fill-opacity:1;fill-rule:nonzero;stroke:none" />
  <path
     inkscape:connector-curvature="0"
     id="path7"
     d="M 31.101562,16.140625 C 28.429688,17 30.773438,20.976562 26.945312,22.921875 22.578125,25.148438 20.40625,19.53125 17.78125,23.539062 c -2.625,4.015626 3.617188,3.390626 3.445312,8.117188 -0.179687,4.71875 -6.359374,3.71875 -4.039062,7.882812 2.320312,4.164063 4.898438,-1.304687 9.09375,1.195313 4.195312,2.492187 0.179688,7.109375 5.125,7.265625 4.945312,0.148438 1.273438,-4.695312 5.648438,-6.921875 4.367187,-2.226563 6.539062,3.390625 9.164062,-0.617187 2.625,-4.015626 -3.617188,-3.390626 -3.445312,-8.109376 0.179687,-4.726562 6.359374,-3.71875 4.039062,-7.890624 -2.320312,-4.164063 -4.898438,1.304687 -9.09375,-1.1875 -4.195312,-2.5 -0.179688,-7.117188 -5.125,-7.265626 -0.617188,-0.02344 -1.109375,0.01563 -1.492188,0.132813 z m 0.04688,12.023437 c 2.210937,-0.453124 4.375,0.898438 4.84375,3.023438 0.46875,2.117188 -0.9375,4.203125 -3.140626,4.648438 -2.210937,0.453124 -4.375,-0.898438 -4.84375,-3.023438 -0.46875,-2.117188 0.9375,-4.195312 3.140626,-4.648438 z m 0,0"
     style="fill:#888888;fill-opacity:1;fill-rule:nonzero;stroke:none" />
  <path
     inkscape:connector-curvature="0"
     id="path9"
     d="M 11.335938,8 C 10.445312,8 9.765625,8 8.867188,8.851562 8,9.640625 8,10.445312 8,11.335938 L 8,52.75 C 8,53.617188 7.980469,54.386719 8.847656,55.136719 9.84375,56 10.382812,56 11.25,56 l 41.5,0 c 0.867188,0 1.476562,0 2.445312,-0.875 C 56.019531,54.378906 56,53.617188 56,52.75 l 0,-41.5 C 56,10.382812 55.984375,9.652344 55.164062,8.859375 54.273438,8 53.617188,8 52.75,8 Z M 12,10 52.042969,10 c 0.390625,0 0.898437,0.234375 1.289062,0.625 0.390625,0.390625 0.625,0.898438 0.625,1.289062 l 0,40.128907 c 0,0.390625 -0.234375,0.898437 -0.625,1.289062 -0.390625,0.390625 -0.898437,0.625 -1.289062,0.625 l -40.085938,0 c -0.390625,0 -0.898437,-0.234375 -1.289062,-0.625 -0.390625,-0.390625 -0.625,-0.898437 -0.625,-1.289062 L 10,12 c 0,-0.445312 0.226562,-0.984375 0.625,-1.375 C 11.015625,10.226562 11.554688,10 12,10 Z m 0,0"
     style="fill:#a8a8a8;fill-opacity:1;fill-rule:nonzero;stroke:none" />
</svg>

<svg xmlns="http://www.w3.org/2000/svg" xmlns:xlink="http://www.w3.org/1999/xlink" width="64px" height="64px" viewBox="0 0 64 64" version="1.1">
<g id="surface1">
<path style=" stroke:none;fill-rule:nonzero;fill:rgb(93.333333%,93.333333%,93.333333%);fill-opacity:1;" d="M 10.742188 8 C 9.375 8 8 9.375 8 10.742188 L 8 53.335938 C 8 54.625 9.375 56 10.664062 56 L 53.335938 56 C 54.625 56 56 54.625 56 53.335938 L 56 10.664062 C 56 9.375 54.625 8 53.335938 8 Z M 10.742188 8 "/>
<path style=" stroke:none;fill-rule:nonzero;fill:rgb(53.333333%,53.333333%,53.333333%);fill-opacity:1;" d="M 31.101562 16.140625 C 28.429688 17 30.773438 20.976562 26.945312 22.921875 C 22.578125 25.148438 20.40625 19.53125 17.78125 23.539062 C 15.15625 27.554688 21.398438 26.929688 21.226562 31.65625 C 21.046875 36.375 14.867188 35.375 17.1875 39.539062 C 19.507812 43.703125 22.085938 38.234375 26.28125 40.734375 C 30.476562 43.226562 26.460938 47.84375 31.40625 48 C 36.351562 48.148438 32.679688 43.304688 37.054688 41.078125 C 41.421875 38.851562 43.59375 44.46875 46.21875 40.460938 C 48.84375 36.445312 42.601562 37.070312 42.773438 32.351562 C 42.953125 27.625 49.132812 28.632812 46.8125 24.460938 C 44.492188 20.296875 41.914062 25.765625 37.71875 23.273438 C 33.523438 20.773438 37.539062 16.15625 32.59375 16.007812 C 31.976562 15.984375 31.484375 16.023438 31.101562 16.140625 Z M 31.148438 28.164062 C 33.359375 27.710938 35.523438 29.0625 35.992188 31.1875 C 36.460938 33.304688 35.054688 35.390625 32.851562 35.835938 C 30.640625 36.289062 28.476562 34.9375 28.007812 32.8125 C 27.539062 30.695312 28.945312 28.617188 31.148438 28.164062 Z M 31.148438 28.164062 "/>
<path style=" stroke:none;fill-rule:nonzero;fill:rgb(66.666667%,66.666667%,66.666667%);fill-opacity:1;" d="M 11.335938 8 C 10.445312 8 9.765625 8 8.867188 8.851562 C 8 9.640625 8 10.445312 8 11.335938 L 8 52.75 C 8 53.617188 7.980469 54.386719 8.847656 55.136719 C 9.84375 56 10.382812 56 11.25 56 L 52.75 56 C 53.617188 56 54.226562 56 55.195312 55.125 C 56.019531 54.378906 56 53.617188 56 52.75 L 56 11.25 C 56 10.382812 55.984375 9.652344 55.164062 8.859375 C 54.273438 8 53.617188 8 52.75 8 Z M 12 10 L 52.042969 10 C 52.433594 10 52.941406 10.234375 53.332031 10.625 C 53.722656 11.015625 53.957031 11.523438 53.957031 11.914062 L 53.957031 52.042969 C 53.957031 52.433594 53.722656 52.941406 53.332031 53.332031 C 52.941406 53.722656 52.433594 53.957031 52.042969 53.957031 L 11.957031 53.957031 C 11.566406 53.957031 11.058594 53.722656 10.667969 53.332031 C 10.277344 52.941406 10.042969 52.433594 10.042969 52.042969 L 10 12 C 10 11.554688 10.226562 11.015625 10.625 10.625 C 11.015625 10.226562 11.554688 10 12 10 Z M 12 10 "/>
</g>
</svg>
